mediabuilder/img/social/fb.svg

<svg width="37" height="36" viewBox="0 0 37 36" fill="none" xmlns="http://www.w3.org/2000/svg">
<path d="M22.7322 3.15015C18.5509 3.15015 16.0985 5.35855 16.0985 10.3906V14.818H10.7949V20.1216H16.0985V32.8501H21.4021V20.1216H25.6449L26.7056 14.818H21.4021V11.2879C21.4021 9.39245 22.0205 8.45372 23.7993 8.45372H26.7056V3.36759C26.2029 3.29971 24.738 3.15015 22.7322 3.15015Z" fill="#1C77ED"/>
</svg>

<svg width="37" height="36" fill="none" xmlns="http://www.w3.org/2000/svg"><path d="M22.732 3.15c-4.181 0-6.633 2.209-6.633 7.24v4.428h-5.304v5.304h5.304V32.85h5.303V20.122h4.243l1.06-5.304h-5.303v-3.53c0-1.896.618-2.834 2.397-2.834h2.907V3.368c-.503-.068-1.968-.218-3.974-.218z" fill="#1C77ED"/></svg>
